svg/icon/xmr.svg

<svg xmlns="http://www.w3.org/2000/svg" xmlns:xlink="http://www.w3.org/1999/xlink" width="32" height="32" viewBox="0 0 32 32"><defs><linearGradient id="xmr-c" x1="50%" x2="50%" y1="0%" y2="100%"><stop offset="0%" stop-color="#FFF" stop-opacity=".5"/><stop offset="100%" stop-opacity=".5"/></linearGradient><circle id="xmr-b" cx="16" cy="15" r="15"/><filter id="xmr-a" width="111.7%" height="111.7%" x="-5.8%" y="-4.2%" filterUnits="objectBoundingBox"><feOffset dy=".5" in="SourceAlpha" result="shadowOffsetOuter1"/><feGaussianBlur in="shadowOffsetOuter1" result="shadowBlurOuter1" stdDeviation=".5"/><feComposite in="shadowBlurOuter1" in2="SourceAlpha" operator="out" result="shadowBlurOuter1"/><feColorMatrix in="shadowBlurOuter1" values="0 0 0 0 0 0 0 0 0 0 0 0 0 0 0 0 0 0 0.199473505 0"/></filter><path id="xmr-e" d="M15.9706667,4.23466667 C21.9546667,4.23466667 26.7946667,9.07466667 26.7946667,15.0586667 C26.7946667,16.2613333 26.5893333,17.4053333 26.2373333,18.4906667 L23.0106667,18.4906667 L23.0106667,9.39733333 L15.9706667,16.4373333 L8.93066667,9.39733333 L8.93066667,18.4906667 L5.704,18.4906667 C5.352,17.4053333 5.14666667,16.2613333 5.14666667,15.0586667 C5.14666667,9.07466667 9.98666667,4.23466667 15.9706667,4.23466667 Z M14.3573333,18.0213333 L16,19.6346667 L17.6133333,18.0213333 L20.664,14.9413333 L20.664,20.6613333 L20.8986667,20.6613333 L23.0106667,20.6613333 L25.2106667,20.6613333 C23.3333333,23.7706667 19.872,25.8533333 15.9706667,25.8533333 C12.0693333,25.8533333 8.63733333,23.7706667 6.73066667,20.6613333 L8.93066667,20.6613333 L10.104,20.6613333 L11.2773333,20.6613333 L11.2773333,14.9413333 L14.3573333,18.0213333 Z"/><filter id="xmr-d" width="116.2%" height="116.2%" x="-8.1%" y="-5.8%" filterUnits="objectBoundingBox"><feOffset dy=".5" in="SourceAlpha" result="shadowOffsetOuter1"/><feGaussianBlur in="shadowOffsetOuter1" result="shadowBlurOuter1" stdDeviation=".5"/><feColorMatrix in="shadowBlurOuter1" values="0 0 0 0 0 0 0 0 0 0 0 0 0 0 0 0 0 0 0.204257246 0"/></filter></defs><g fill="none" fill-rule="evenodd"><use fill="#000" filter="url(#xmr-a)" xlink:href="#xmr-b"/><use fill="#F60" xlink:href="#xmr-b"/><use fill="url(#xmr-c)" style="mix-blend-mode:soft-light" xlink:href="#xmr-b"/><circle cx="16" cy="15" r="14.5" stroke="#000" stroke-opacity=".097"/><g fill-rule="nonzero"><use fill="#000" filter="url(#xmr-d)" xlink:href="#xmr-e"/><use fill="#FFF" fill-rule="evenodd" xlink:href="#xmr-e"/></g></g></svg>

<svg xmlns="http://www.w3.org/2000/svg" xmlns:xlink="http://www.w3.org/1999/xlink" width="32" height="32" viewBox="0 0 32 32"><defs><linearGradient id="c" x1="50%" x2="50%" y1="0%" y2="100%"><stop offset="0%" stop-color="#FFF" stop-opacity=".5"/><stop offset="100%" stop-opacity=".5"/></linearGradient><circle id="b" cx="16" cy="15" r="15"/><filter id="a" width="111.7%" height="111.7%" x="-5.8%" y="-4.2%" filterUnits="objectBoundingBox"><feOffset dy=".5" in="SourceAlpha" result="shadowOffsetOuter1"/><feGaussianBlur in="shadowOffsetOuter1" result="shadowBlurOuter1" stdDeviation=".5"/><feComposite in="shadowBlurOuter1" in2="SourceAlpha" operator="out" result="shadowBlurOuter1"/><feColorMatrix in="shadowBlurOuter1" values="0 0 0 0 0 0 0 0 0 0 0 0 0 0 0 0 0 0 0.199473505 0"/></filter><path id="e" d="M15.97 4.235c5.985 0 10.825 4.84 10.825 10.824a11.07 11.07 0 0 1-.558 3.432h-3.226V9.397l-7.04 7.04-7.04-7.04v9.094H5.704a11.07 11.07 0 0 1-.557-3.432c0-5.984 4.84-10.824 10.824-10.824zM14.358 18.02L16 19.635l1.613-1.614 3.051-3.08v5.72h4.547a10.806 10.806 0 0 1-9.24 5.192c-3.902 0-7.334-2.082-9.24-5.192h4.546v-5.72l3.08 3.08z"/><filter id="d" width="116.2%" height="116.2%" x="-8.1%" y="-5.8%" filterUnits="objectBoundingBox"><feOffset dy=".5" in="SourceAlpha" result="shadowOffsetOuter1"/><feGaussianBlur in="shadowOffsetOuter1" result="shadowBlurOuter1" stdDeviation=".5"/><feColorMatrix in="shadowBlurOuter1" values="0 0 0 0 0 0 0 0 0 0 0 0 0 0 0 0 0 0 0.204257246 0"/></filter></defs><g fill="none" fill-rule="evenodd"><use fill="#000" filter="url(#a)" xlink:href="#b"/><use fill="#F60" xlink:href="#b"/><use fill="url(#c)" style="mix-blend-mode:soft-light" xlink:href="#b"/><circle cx="16" cy="15" r="14.5" stroke="#000" stroke-opacity=".097"/><g fill-rule="nonzero"><use fill="#000" filter="url(#d)" xlink:href="#e"/><use fill="#FFF" fill-rule="evenodd" xlink:href="#e"/></g></g></svg>
